X: 43
T:Swinging on the Gate
M:C|
L:1/8
R:Reel
K:G
gedB G2AB|cABG AGEG|DGBd g2fg|eaag fdef|!
gedB G2AB|cABG AGEG|c2Bc AGEG|DGGF GABd:|!
|:~g3a bgaf|gfed B2AG|EAAB cBAG|(3EFG AB cdef|!
~g3a bgaf|gfed B2AB|cABG AGEG|DGGF GABd:|]!
